dist/img/icons/ic_clock.svg

<svg width="46" height="46" viewBox="0 0 46 46" fill="none" xmlns="http://www.w3.org/2000/svg">
<path fill-rule="evenodd" clip-rule="evenodd" d="M11 22.5C11 15.6075 16.6075 10 23.5 10C30.3925 10 36 15.6075 36 22.5C36 29.3925 30.3925 35 23.5 35C16.6075 35 11 29.3925 11 22.5ZM13.6595 22.5004C13.6595 27.9265 18.0741 32.3406 23.4999 32.3406C28.9258 32.3406 33.3404 27.9265 33.3404 22.5004C33.3404 17.0743 28.9258 12.6602 23.4999 12.6602C18.0741 12.6602 13.6595 17.0743 13.6595 22.5004Z" fill="#FFC59E"/>
<path d="M30.0149 22.1141H24.3973V15.3598C24.3973 14.7914 23.9365 14.3306 23.3681 14.3306C22.7997 14.3306 22.3389 14.7914 22.3389 15.3598V23.1433C22.3389 23.7117 22.7997 24.1726 23.3681 24.1726H30.0149C30.5833 24.1726 31.0441 23.7117 31.0441 23.1433C31.0441 22.575 30.5833 22.1141 30.0149 22.1141Z" fill="#FFC59E"/>
</svg>

<svg width="46" height="46" fill="none" xmlns="http://www.w3.org/2000/svg"><path fill-rule="evenodd" clip-rule="evenodd" d="M11 22.5C11 15.607 16.608 10 23.5 10S36 15.607 36 22.5C36 29.392 30.392 35 23.5 35S11 29.392 11 22.5zm2.66 0c0 5.427 4.414 9.84 9.84 9.84s9.84-4.414 9.84-9.84-4.414-9.84-9.84-9.84-9.84 4.414-9.84 9.84z" fill="#FFC59E"/><path d="M30.015 22.114h-5.618V15.36a1.03 1.03 0 00-2.058 0v7.783c0 .569.46 1.03 1.03 1.03h6.646a1.03 1.03 0 000-2.059z" fill="#FFC59E"/></svg>
